images/crown.svg

<svg width="20" height="13" xmlns="http://www.w3.org/2000/svg">

 <g>
  <title>background</title>
  <rect fill="none" id="canvas_background" height="402" width="582" y="-1" x="-1"/>
 </g>
 <g>
  <title>Layer 1</title>
  <path id="svg_1" fill="#0075ff" d="m9.99996,3.69335l-9.64314,5.98002l-0.35682,0.01181l3.06273,-9.68506l2.07379,0.28725l-1.79749,5.39578l6.53867,-3.87775l0.12226,0l0.12224,0l2.0331,1.2057l-0.7131,1.54224l-1.44224,-0.85999zm0.06474,9.30685l-0.21525,-0.0003l-3.26115,-6.65103l1.75138,-1.04184l1.64069,3.48184l1.94313,-3.94534l-0.0013,-0.00088l0.7322,-1.53546l4.0066,2.37596l-1.7975,-5.39578l2.0739,-0.28725l3.0626,9.68506l-0.3567,-0.01181l-6.0052,-3.7573l-3.5734,7.08413z" clip-rule="evenodd" fill-rule="evenodd"/>
 </g>
</svg>

<svg width="20" height="13" viewBox="0 0 20 13" fill="none" xmlns="http://www.w3.org/2000/svg">
<path fill-rule="evenodd" clip-rule="evenodd" d="M9.99996 3.69335L0.356822 9.67337L0 9.68518L3.06273 0.00012207L5.13652 0.28737L3.33903 5.68315L9.8777 1.8054H9.99996H10.1222L12.1553 3.0111L11.4422 4.55334L9.99996 3.69335ZM10.0647 13.0002L9.84945 12.9999L6.5883 6.34887L8.33968 5.30703L9.98037 8.78887L11.9235 4.84353L11.9222 4.84265L12.6544 3.30719L16.661 5.68315L14.8635 0.28737L16.9374 0.00012207L20 9.68518L19.6433 9.67337L13.6381 5.91607L10.0647 13.0002Z" fill="#00AAEF"/>
</svg>
